images/portal/4909.svg

<?xml version="1.0" standalone="no"?><!DOCTYPE svg PUBLIC "-//W3C//DTD SVG 1.1//EN" "http://www.w3.org/Graphics/SVG/1.1/DTD/svg11.dtd"><svg xmlns:xlink="http://www.w3.org/1999/xlink" version="1.1" class="highcharts-root" style="font-family:arial;font-size:12px;" xmlns="http://www.w3.org/2000/svg" width="485" height="415"><desc>Created with Highstock 5.0.14</desc><defs><clipPath id="highcharts-ex3dt0d-6"><rect x="0" y="0" width="432" height="291" fill="none"></rect></clipPath><clipPath id="highcharts-ex3dt0d-7"><rect x="0" y="0" width="432" height="291" fill="none"></rect></clipPath></defs><rect fill="#fbfbfb" class="highcharts-background" x="0" y="0" width="485" height="415" rx="0" ry="0"></rect><rect fill="none" class="highcharts-plot-background" x="43" y="58" width="432" height="291"></rect><g class="highcharts-pane-group"></g><g class="highcharts-grid highcharts-xaxis-grid "><path fill="none" class="highcharts-grid-line" d="M 81.5 58 L 81.5 349" opacity="1"></path><path fill="none" class="highcharts-grid-line" d="M 146.5 58 L 146.5 349" opacity="1"></path><path fill="none" class="highcharts-grid-line" d="M 210.5 58 L 210.5 349" opacity="1"></path><path fill="none" class="highcharts-grid-line" d="M 275.5 58 L 275.5 349" opacity="1"></path><path fill="none" class="highcharts-grid-line" d="M 340.5 58 L 340.5 349" opacity="1"></path><path fill="none" class="highcharts-grid-line" d="M 405.5 58 L 405.5 349" opacity="1"></path><path fill="none" class="highcharts-grid-line" d="M 470.5 58 L 470.5 349" opacity="1"></path></g><g class="highcharts-grid highcharts-yaxis-grid "><path fill="none" stroke="#B9CFD7" stroke-width="0.5" class="highcharts-grid-line" d="M 43 349.25 L 475 349.25" opacity="1"></path><path fill="none" stroke="#B9CFD7" stroke-width="0.5" class="highcharts-grid-line" d="M 43 276.25 L 475 276.25" opacity="1"></path><path fill="none" stroke="#B9CFD7" stroke-width="0.5" class="highcharts-grid-line" d="M 43 204.25 L 475 204.25" opacity="1"></path><path fill="none" stroke="#B9CFD7" stroke-width="0.5" class="highcharts-grid-line" d="M 43 131.25 L 475 131.25" opacity="1"></path><path fill="none" stroke="#B9CFD7" stroke-width="0.5" class="highcharts-grid-line" d="M 43 57.75 L 475 57.75" opacity="1"></path></g><rect fill="none" class="highcharts-plot-border" x="43" y="58" width="432" height="291"></rect><g class="highcharts-axis highcharts-xaxis "><path fill="none" class="highcharts-axis-line" stroke="#B9CFD7" stroke-width="0.5" d="M 43 349.25 L 475 349.25"></path></g><g class="highcharts-axis highcharts-yaxis "><path fill="none" class="highcharts-axis-line" d="M 43 58 L 43 349"></path></g><g class="highcharts-series-group"><g class="highcharts-series highcharts-series-0 highcharts-line-series highcharts-color-undefined " transform="translate(43,58) scale(1 1)" clip-path="url(#highcharts-ex3dt0d-7)"><path fill="none" d="M 0 145.5 L 12.961296129613 143.6085 L 25.922592259226 139.38899999999998 L 38.883888388839 134.29649999999998 L 51.845184518452 133.569 L 64.806480648065 131.24099999999999 L 77.767776777678 128.331 L 90.729072907291 122.94749999999999 L 103.6903690369 113.48999999999998 L 116.65166516652 102.57749999999999 L 129.61296129613 94.42949999999999 L 142.57425742574 87.29999999999998 L 155.53555355536 84.97200000000001 L 168.49684968497 81.62549999999999 L 181.45814581458 79.58849999999998 L 194.41944194419 78.4245 L 207.38073807381 78.57 L 220.34203420342 76.96950000000001 L 233.30333033303 74.05949999999999 L 246.26462646265 72.16799999999998 L 259.22592259226 70.713 L 272.18721872187 69.40349999999998 L 285.14851485149 67.512 L 298.1098109811 64.4565 L 311.07110711071 61.982999999999976 L 324.03240324032 60.67349999999996 L 336.99369936994 54.85349999999997 L 349.95499549955 55.726500000000016 L 362.91629162916 53.83499999999998 L 375.87758775878 53.10749999999999 L 388.83888388839 54.417 L 401.800180018 54.998999999999995 L 414.76147614762 54.998999999999995 L 427.72277227723 57.90899999999999" class="highcharts-graph" stroke="#000000" stroke-width="2" stroke-linejoin="round" stroke-linecap="round"></path></g><g class="highcharts-markers highcharts-series-0 highcharts-line-series highcharts-color-undefined " transform="translate(43,58) scale(1 1)" clip-path="none"><path fill="#000000" d="M 4 146 A 4 4 0 1 1 3.9999980000001667 145.99600000066667 Z" class="highcharts-point"></path><path fill="#000000" d="M 16 144 A 4 4 0 1 1 15.999998000000167 143.99600000066667 Z" class="highcharts-point"></path><path fill="#000000" d="M 29 139 A 4 4 0 1 1 28.99999800000017 138.99600000066667 Z" class="highcharts-point"></path><path fill="#000000" d="M 42 134 A 4 4 0 1 1 41.99999800000017 133.99600000066667 Z" class="highcharts-point"></path><path fill="#000000" d="M 55 134 A 4 4 0 1 1 54.99999800000017 133.99600000066667 Z" class="highcharts-point"></path><path fill="#000000" d="M 68 131 A 4 4 0 1 1 67.99999800000016 130.99600000066667 Z" class="highcharts-point"></path><path fill="#000000" d="M 81 128 A 4 4 0 1 1 80.99999800000016 127.99600000066667 Z" class="highcharts-point"></path><path fill="#000000" d="M 94 123 A 4 4 0 1 1 93.99999800000016 122.99600000066667 Z" class="highcharts-point"></path><path fill="#000000" d="M 107 113 A 4 4 0 1 1 106.99999800000016 112.99600000066667 Z" class="highcharts-point"></path><path fill="#000000" d="M 120 103 A 4 4 0 1 1 119.99999800000016 102.99600000066667 Z" class="highcharts-point"></path><path fill="#000000" d="M 133 94 A 4 4 0 1 1 132.99999800000018 93.99600000066667 Z" class="highcharts-point"></path><path fill="#000000" d="M 146 87 A 4 4 0 1 1 145.99999800000018 86.99600000066667 Z" class="highcharts-point"></path><path fill="#000000" d="M 159 85 A 4 4 0 1 1 158.99999800000018 84.99600000066667 Z" class="highcharts-point"></path><path fill="#000000" d="M 172 82 A 4 4 0 1 1 171.99999800000018 81.99600000066667 Z" class="highcharts-point"></path><path fill="#000000" d="M 185 80 A 4 4 0 1 1 184.99999800000018 79.99600000066667 Z" class="highcharts-point"></path><path fill="#000000" d="M 198 78 A 4 4 0 1 1 197.99999800000018 77.99600000066667 Z" class="highcharts-point"></path><path fill="#000000" d="M 211 79 A 4 4 0 1 1 210.99999800000018 78.99600000066667 Z" class="highcharts-point"></path><path fill="#000000" d="M 224 77 A 4 4 0 1 1 223.99999800000018 76.99600000066667 Z" class="highcharts-point"></path><path fill="#000000" d="M 237 74 A 4 4 0 1 1 236.99999800000018 73.99600000066667 Z" class="highcharts-point"></path><path fill="#000000" d="M 250 72 A 4 4 0 1 1 249.99999800000018 71.99600000066667 Z" class="highcharts-point"></path><path fill="#000000" d="M 263 71 A 4 4 0 1 1 262.9999980000002 70.99600000066667 Z" class="highcharts-point"></path><path fill="#000000" d="M 276 69 A 4 4 0 1 1 275.9999980000002 68.99600000066667 Z" class="highcharts-point"></path><path fill="#000000" d="M 289 68 A 4 4 0 1 1 288.9999980000002 67.99600000066667 Z" class="highcharts-point"></path><path fill="#000000" d="M 302 64 A 4 4 0 1 1 301.9999980000002 63.99600000066666 Z" class="highcharts-point"></path><path fill="#000000" d="M 315 62 A 4 4 0 1 1 314.9999980000002 61.99600000066666 Z" class="highcharts-point"></path><path fill="#000000" d="M 328 61 A 4 4 0 1 1 327.9999980000002 60.99600000066666 Z" class="highcharts-point"></path><path fill="#000000" d="M 340 55 A 4 4 0 1 1 339.9999980000002 54.99600000066666 Z" class="highcharts-point"></path><path fill="#000000" d="M 353 56 A 4 4 0 1 1 352.9999980000002 55.99600000066666 Z" class="highcharts-point"></path><path fill="#000000" d="M 366 54 A 4 4 0 1 1 365.9999980000002 53.99600000066666 Z" class="highcharts-point"></path><path fill="#000000" d="M 379 53 A 4 4 0 1 1 378.9999980000002 52.99600000066666 Z" class="highcharts-point"></path><path fill="#000000" d="M 392 54 A 4 4 0 1 1 391.9999980000002 53.99600000066666 Z" class="highcharts-point"></path><path fill="#000000" d="M 405 55 A 4 4 0 1 1 404.9999980000002 54.99600000066666 Z" class="highcharts-point"></path><path fill="#000000" d="M 418 55 A 4 4 0 1 1 417.9999980000002 54.99600000066666 Z" class="highcharts-point"></path><path fill="#000000" d="M 431 58 A 4 4 0 1 1 430.9999980000002 57.99600000066666 Z" class="highcharts-point"></path></g></g><text x="10" text-anchor="start" class="highcharts-title" style="color:#000000;font-size:14px;font-weight:bold;fill:#000000;" y="21"><tspan>Basler Index der Konsumentenpreise seit 1982 (Dez. 1982 =</tspan><tspan dy="17" x="10">100)</tspan><title>Basler Index der Konsumentenpreise seit 1982 (Dez. 1982 = 100)</title></text><g class="highcharts-data-labels highcharts-series-0 highcharts-line-series highcharts-color-undefined " visibility="visible" transform="translate(43,58) scale(1 1)"><g class="highcharts-label highcharts-data-label highcharts-data-label-color-undefined " transform="translate(-5,113)"><text x="5" style="font-size:11px;font-weight:bold;color:#000000;fill:#000000;" y="16"><tspan x="5" y="16" class="highcharts-text-outline" fill="#FFFFFF" stroke="#FFFFFF" stroke-width="2px" stroke-linejoin="round">100</tspan><tspan x="5" y="16">100</tspan></text></g><g class="highcharts-label highcharts-data-label highcharts-data-label-color-undefined " transform="translate(408,25)"><text x="5" style="font-size:11px;font-weight:bold;color:#000000;fill:#000000;" y="16"><tspan x="5" y="16" class="highcharts-text-outline" fill="#FFFFFF" stroke="#FFFFFF" stroke-width="2px" stroke-linejoin="round">160</tspan><tspan x="5" y="16">160</tspan></text></g></g><g class="highcharts-axis-labels highcharts-xaxis-labels "><text x="81.88388838883897" style="color:#000000;cursor:default;font-size:11px;fill:#000000;" text-anchor="middle" transform="translate(0,0)" y="368" opacity="1">1985</text><text x="146.69036903690392" style="color:#000000;cursor:default;font-size:11px;fill:#000000;" text-anchor="middle" transform="translate(0,0)" y="368" opacity="1">1990</text><text x="211.49684968496888" style="color:#000000;cursor:default;font-size:11px;fill:#000000;" text-anchor="middle" transform="translate(0,0)" y="368" opacity="1">1995</text><text x="276.30333033303384" style="color:#000000;cursor:default;font-size:11px;fill:#000000;" text-anchor="middle" transform="translate(0,0)" y="368" opacity="1">2000</text><text x="341.10981098109875" style="color:#000000;cursor:default;font-size:11px;fill:#000000;" text-anchor="middle" transform="translate(0,0)" y="368" opacity="1">2005</text><text x="405.9162916291637" style="color:#000000;cursor:default;font-size:11px;fill:#000000;" text-anchor="middle" transform="translate(0,0)" y="368" opacity="1">2010</text><text x="462.78125" style="color:#000000;cursor:default;font-size:11px;fill:#000000;" text-anchor="middle" transform="translate(0,0)" y="368" opacity="1">2015</text></g><g class="highcharts-axis-labels highcharts-yaxis-labels "><text x="28" style="color:#000000;cursor:default;font-size:11px;fill:#000000;" text-anchor="end" transform="translate(0,0)" y="354" opacity="1"><tspan>0</tspan></text><text x="28" style="color:#000000;cursor:default;font-size:11px;fill:#000000;" text-anchor="end" transform="translate(0,0)" y="281" opacity="1"><tspan>50</tspan></text><text x="28" style="color:#000000;cursor:default;font-size:11px;fill:#000000;" text-anchor="end" transform="translate(0,0)" y="208" opacity="1"><tspan>100</tspan></text><text x="28" style="color:#000000;cursor:default;font-size:11px;fill:#000000;" text-anchor="end" transform="translate(0,0)" y="135" opacity="1"><tspan>150</tspan></text><text x="28" style="color:#000000;cursor:default;font-size:11px;fill:#000000;" text-anchor="end" transform="translate(0,0)" y="63" opacity="1"><tspan>200</tspan></text></g><text x="10" class="highcharts-credits" text-anchor="start" style="cursor:default;color:#000000;font-size:10px;fill:#000000;" y="400"><tspan>Quelle: Statistisches Amt Basel-Stadt</tspan></text></svg>

<svg class="highcharts-root" xmlns="http://www.w3.org/2000/svg" width="485" height="415" font-family="arial" font-size="12">
    <defs>
        <clipPath id="a">
            <path fill="none" d="M0 0h432v291H0z"/>
        </clipPath>
    </defs>
    <rect fill="#fbfbfb" class="highcharts-background" width="485" height="415" rx="0" ry="0"/>
    <path fill="none" class="highcharts-plot-background" d="M43 58h432v291H43z"/>
    <g class="highcharts-grid highcharts-xaxis-grid">
        <path fill="none" class="highcharts-grid-line" d="M81.5 58v291m65-291v291m64-291v291m65-291v291m65-291v291m65-291v291m65-291v291"/>
    </g>
    <g class="highcharts-grid highcharts-yaxis-grid">
        <path fill="none" stroke="#B9CFD7" stroke-width=".5" class="highcharts-grid-line" d="M43 349.25h432m-432-73h432m-432-72h432m-432-73h432M43 57.75h432"/>
    </g>
    <path fill="none" class="highcharts-plot-border" d="M43 58h432v291H43z"/>
    <g class="highcharts-axis highcharts-xaxis">
        <path fill="none" class="highcharts-axis-line" stroke="#B9CFD7" stroke-width=".5" d="M43 349.25h432"/>
    </g>
    <g class="highcharts-axis highcharts-yaxis">
        <path fill="none" class="highcharts-axis-line" d="M43 58v291"/>
    </g>
    <g class="highcharts-series-group">
        <g class="highcharts-series highcharts-series-0 highcharts-line-series highcharts-color-undefined" transform="translate(43 58)" clip-path="url(#a)">
            <path fill="none" d="M0 145.5l12.961-1.892 12.962-4.219 12.96-5.093 12.962-.727 12.961-2.328 12.962-2.91 12.961-5.383 12.961-9.458 12.962-10.913 12.961-8.148 12.961-7.129 12.962-2.328 12.96-3.347 12.962-2.037 12.961-1.163 12.962.145 12.961-1.6 12.961-2.91 12.962-1.892 12.96-1.455 12.962-1.31 12.962-1.891 12.96-3.055 12.962-2.474 12.961-1.31 12.962-5.82 12.961.874 12.961-1.892 12.962-.728 12.96 1.31 12.962.582h12.961l12.962 2.91" class="highcharts-graph" stroke="#000" stroke-width="2" stroke-linejoin="round" stroke-linecap="round"/>
        </g>
        <g class="highcharts-markers highcharts-series-0 highcharts-line-series highcharts-color-undefined">
            <path d="M47 204a4 4 0 1 1 0-.004zm12-2a4 4 0 1 1 0-.004zm13-5a4 4 0 1 1 0-.004zm13-5a4 4 0 1 1 0-.004zm13 0a4 4 0 1 1 0-.004zm13-3a4 4 0 1 1 0-.004zm13-3a4 4 0 1 1 0-.004zm13-5a4 4 0 1 1 0-.004zm13-10a4 4 0 1 1 0-.004zm13-10a4 4 0 1 1 0-.004zm13-9a4 4 0 1 1 0-.004zm13-7a4 4 0 1 1 0-.004zm13-2a4 4 0 1 1 0-.004zm13-3a4 4 0 1 1 0-.004zm13-2a4 4 0 1 1 0-.004zm13-2a4 4 0 1 1 0-.004zm13 1a4 4 0 1 1 0-.004zm13-2a4 4 0 1 1 0-.004zm13-3a4 4 0 1 1 0-.004zm13-2a4 4 0 1 1 0-.004zm13-1a4 4 0 1 1 0-.004zm13-2a4 4 0 1 1 0-.004zm13-1a4 4 0 1 1 0-.004zm13-4a4 4 0 1 1 0-.004zm13-2a4 4 0 1 1 0-.004zm13-1a4 4 0 1 1 0-.004zm12-6a4 4 0 1 1 0-.004zm13 1a4 4 0 1 1 0-.004zm13-2a4 4 0 1 1 0-.004zm13-1a4 4 0 1 1 0-.004zm13 1a4 4 0 1 1 0-.004zm13 1a4 4 0 1 1 0-.004zm13 0a4 4 0 1 1 0-.004zm13 3a4 4 0 1 1 0-.004z" class="highcharts-point"/>
        </g>
    </g>
    <text x="10" class="highcharts-title" y="21" color="#000" font-size="14" font-weight="700">
        <tspan>Basler Index der Konsumentenpreise seit 1982 (Dez. 1982 =</tspan><tspan dy="17" x="10">100)</tspan><title>Basler Index der Konsumentenpreise seit 1982 (Dez. 1982 = 100)</title>
    </text>
    <g class="highcharts-data-labels highcharts-series-0 highcharts-line-series highcharts-color-undefined">
        <text x="5" y="16" font-size="11" font-weight="700" color="#000" transform="translate(38 171)" class="highcharts-label highcharts-data-label highcharts-data-label-color-undefined">
            <tspan x="5" y="16" class="highcharts-text-outline" fill="#FFF" stroke="#FFF" stroke-width="2" stroke-linejoin="round">100</tspan><tspan x="5" y="16">100</tspan>
        </text>
        <text x="5" y="16" font-size="11" font-weight="700" color="#000" transform="translate(451 83)" class="highcharts-label highcharts-data-label highcharts-data-label-color-undefined">
            <tspan x="5" y="16" class="highcharts-text-outline" fill="#FFF" stroke="#FFF" stroke-width="2" stroke-linejoin="round">160</tspan><tspan x="5" y="16">160</tspan>
        </text>
    </g>
    <g class="highcharts-axis-labels highcharts-xaxis-labels" text-anchor="middle" color="#000" cursor="default" font-size="11">
        <text x="81.884" y="368">
            1985
        </text>
        <text x="146.69" y="368">
            1990
        </text>
        <text x="211.497" y="368">
            1995
        </text>
        <text x="276.303" y="368">
            2000
        </text>
        <text x="341.11" y="368">
            2005
        </text>
        <text x="405.916" y="368">
            2010
        </text>
        <text x="462.781" y="368">
            2015
        </text>
    </g>
    <g class="highcharts-axis-labels highcharts-yaxis-labels" text-anchor="end" color="#000" cursor="default" font-size="11">
        <text x="28" y="354">
            <tspan>0</tspan>
        </text>
        <text x="28" y="281">
            <tspan>50</tspan>
        </text>
        <text x="28" y="208">
            <tspan>100</tspan>
        </text>
        <text x="28" y="135">
            <tspan>150</tspan>
        </text>
        <text x="28" y="63">
            <tspan>200</tspan>
        </text>
    </g>
    <text x="10" class="highcharts-credits" y="400" cursor="default" color="#000" font-size="10">
        <tspan>Quelle: Statistisches Amt Basel-Stadt</tspan>
    </text>
</svg>
